frontend/src/assets/icons/home.svg

<svg xmlns="http://www.w3.org/2000/svg" width="current" height="current" viewBox="0 0 30 30"><path style="opacity:1;fill:current;fill-opacity:1;stroke:none;stroke-width:1;stroke-miterlimit:4;stroke-dasharray:none;stroke-opacity:.71555553" d="M15 3 3 15h3v10c0 1.108.892 2 2 2h4.5v-7h5v7H22c1.108 0 2-.892 2-2V15h3l-3-3V9c0-.554-.446-1-1-1s-1 .446-1 1v1l-7-7z"/></svg>

<?xml version="1.0" encoding="UTF-8" standalone="no"?>


<!-- Uploaded to: SVG Repo, www.svgrepo.com, Generator: SVG Repo Mixer Tools -->
<svg 
   xmlns:dc="http://purl.org/dc/elements/1.1/"
   xmlns:cc="http://creativecommons.org/ns#"
   xmlns:rdf="http://www.w3.org/1999/02/22-rdf-syntax-ns#"
   xmlns:svg="http://www.w3.org/2000/svg"
   xmlns="http://www.w3.org/2000/svg"
   xmlns:sodipodi="http://sodipodi.sourceforge.net/DTD/sodipodi-0.dtd"
   xmlns:inkscape="http://www.inkscape.org/namespaces/inkscape"
   width="current"
   height="current"
   viewBox="0 0 30 30"
   version="1.1"
   id="svg822"
   inkscape:version="0.92.4 (f8dce91, 2019-08-02)"
   sodipodi:docname="home.svg">
  <defs
     id="defs816" />
  <sodipodi:namedview
     id="base"
     pagecolor="#ffffff"
     bordercolor="#666666"
     borderopacity="1.0"
     inkscape:pageopacity="0.0"
     inkscape:pageshadow="2"
     inkscape:zoom="17.833333"
     inkscape:cx="15"
     inkscape:cy="15"
     inkscape:document-units="px"
     inkscape:current-layer="layer1"
     showgrid="true"
     units="px"
     inkscape:window-width="1366"
     inkscape:window-height="713"
     inkscape:window-x="0"
     inkscape:window-y="0"
     inkscape:window-maximized="1"
     showguides="false">
    <inkscape:grid
       type="xygrid"
       id="grid816" />
  </sodipodi:namedview>
  <metadata
     id="metadata819">
    <rdf:RDF>
      <cc:Work
         rdf:about="">
        <dc:format>image/svg+xml</dc:format>
        <dc:type
           rdf:resource="http://purl.org/dc/dcmitype/StillImage" />
        <dc:title>

</dc:title>
      </cc:Work>
    </rdf:RDF>
  </metadata>
  <g
     inkscape:label="Layer 1"
     inkscape:groupmode="layer"
     id="layer1"
     transform="translate(0,-289.0625)">
    <path
       style="opacity:1;fill:current;fill-opacity:1;stroke:none;stroke-width:1;stroke-miterlimit:4;stroke-dasharray:none;stroke-opacity:0.71555553"
       d="M 15 3 L 3 15 L 6 15 L 6 25 C 6 26.108 6.892 27 8 27 L 12.5 27 L 12.5 20 L 17.5 20 L 17.5 27 L 22 27 C 23.108 27 24 26.108 24 25 L 24 15 L 27 15 L 24 12 L 24 9 C 24 8.446 23.554 8 23 8 C 22.446 8 22 8.446 22 9 L 22 10 L 15 3 z "
       transform="translate(0,289.0625)"
       id="rect961" />
  </g>
</svg>
